X:207
T: Liu yue tian shui
N: C1699
O: China,Taiwan
S: IV, 630]
R: Xiaodiao]
M: 2/4
L: 1/16
K: C
e2e2e2e2 | e4e4 | e2A2c2e2 | c2e2cecA | A8 | E6z2 |
c2AcA2c2 | A2c2A3E | A2c2A3E | A2c2e2A2 | c6Ac | A8- | A8

@@@ Tune index: 6762
